P3
8 8
255
24 24 24  24 24 24  240 240 240  240 240 240  240 240 240  240 240 240  24 24 24  24 24 24
24 24 24  220 220 220  220 220 220  220 220 220  220 220 220  220 220 220  220 220 220  24 24 24
24 24 24  220 220 220  60 60 60  60 60 60  60 60 60  60 60 60  220 220 220  24 24 24
24 24 24  220 220 220  60 60 60  220 220 220  220 220 220  60 60 60  220 220 220  24 24 24
24 24 24  220 220 220  60 60 60  220 220 220  220 220 220  60 60 60  220 220 220  24 24 24
24 24 24  220 220 220  60 60 60  60 60 60  60 60 60  60 60 60  220 220 220  24 24 24
24 24 24  220 220 220  220 220 220  220 220 220  220 220 220  220 220 220  220 220 220  24 24 24
24 24 24  24 24 24  240 240 240  240 240 240  240 240 240  240 240 240  24 24 24  24 24 24
